;FLAVOR:UltiGCode
;TIME:5616
;MATERIAL:10163
;MATERIAL2:0
;NOZZLE_DIAMETER:0.4
;MINX:90.132
;MINY:47.365
;MINZ:0.27
;MAXX:132.868
;MAXY:175.635
;MAXZ:5.37
;Generated with Cura_SteamEngine 4.8.0
M82 ;absolute extrusion mode
G0 F3000 Y50 ;avoid prime blob
G92 E0
G92 E0
G10
;LAYER_COUNT:35
;LAYER:0
M107
G0 F4500 X90.514 Y49.055 Z0.27
;TYPE:SKIRT
G11
G1 F1800 X90.786 Y48.631 E0.0476
G1 X91.121 Y48.255 E0.09519
G1 X91.511 Y47.937 E0.14275
G1 X91.947 Y47.684 E0.19038
G1 X92.417 Y47.504 E0.23794
G1 X92.91 Y47.4 E0.28556
G1 X93.548 Y47.366 E0.34593
G1 X129.031 Y47.365 E3.69908
G1 X129.729 Y47.375 E3.76505
G1 X130.231 Y47.422 E3.81269
G1 X130.718 Y47.548 E3.86023
G1 X131.18 Y47.75 E3.90788
G1 X131.604 Y48.021 E3.95543
G1 X131.98 Y48.357 E4.00308
G1 X132.298 Y48.747 E4.05064
G1 X132.55 Y49.183 E4.09823
G1 X132.73 Y49.653 E4.14579
G1 X132.833 Y50.146 E4.19338
G1 X132.867 Y50.781 E4.25348
G1 X132.868 Y171.763 E15.68627
G1 X132.859 Y172.49 E15.75498
G1 X132.813 Y172.992 E15.80262
G1 X132.688 Y173.48 E15.85022
G1 X132.487 Y173.942 E15.89784
G1 X132.216 Y174.366 E15.94539
G1 X131.882 Y174.742 E15.99291
G1 X131.492 Y175.061 E16.04053
G1 X131.056 Y175.314 E16.08816
G1 X130.586 Y175.495 E16.13576
G1 X130.094 Y175.599 E16.18328
G1 X129.452 Y175.634 E16.24404
G1 X93.973 Y175.635 E19.59681
G1 X93.275 Y175.626 E19.66277
G1 X92.774 Y175.579 E19.71032
G1 X92.286 Y175.454 E19.75793
G1 X91.824 Y175.254 E19.8055
G1 X91.4 Y174.982 E19.85311
G1 X91.023 Y174.648 E19.9007
G1 X90.705 Y174.257 E19.94833
G1 X90.452 Y173.822 E19.99589
G1 X90.271 Y173.352 E20.04348
G1 X90.167 Y172.859 E20.09109
G1 X90.133 Y172.204 E20.15308
G1 X90.132 Y51.171 E31.59069
G1 X90.141 Y50.506 E31.65354
G1 X90.188 Y50.005 E31.70109
G1 X90.313 Y49.517 E31.7487
G1 X90.514 Y49.055 E31.79631
G10
;MESH:v1paddlehandle.stl
G0 F4500 X92.611 Y51.079
G0 X93.846 Y51.079
G0 X129.098 Y171.865
G0 X129.168 Y171.935
;TYPE:WALL-INNER
G11
G1 F1800 X93.832 Y171.935 E35.13556
G1 X93.832 Y51.065 E46.55778
G1 X129.168 Y51.065 E49.89703
G1 X129.168 Y171.935 E61.31925
G0 F4500 X129.493 Y172.26
;TYPE:WALL-OUTER
G1 F1800 X93.507 Y172.26 E64.71992
G1 X93.507 Y50.74 E76.20356
G1 X129.493 Y50.74 E79.60424
G1 X129.493 Y172.26 E91.08788
G0 F4500 X129.293 Y172.26
G0 X128.828 Y171.595
;TYPE:SKIN
G1 F1800 X94.172 Y171.595 E94.36287
G1 X94.172 Y51.405 E105.72083
G1 X128.828 Y51.405 E108.99582
G1 X128.828 Y171.595 E120.35377
G0 F4500 X94.716 Y171.437
G1 F1800 X94.328 Y171.049 E120.40563
G0 F4500 X94.328 Y170.554
G1 F1800 X95.211 Y171.437 E120.52363
G0 F4500 X95.706 Y171.437
G1 F1800 X94.328 Y170.059 E120.70779
G0 F4500 X94.328 Y169.564
G1 F1800 X96.201 Y171.437 E120.95811
G0 F4500 X96.696 Y171.437
G1 F1800 X94.328 Y169.069 E121.27457
G0 F4500 X94.328 Y168.574
G1 F1800 X97.191 Y171.437 E121.6572
G0 F4500 X97.686 Y171.437
G1 F1800 X94.328 Y168.079 E122.10597
G0 F4500 X94.328 Y167.584
G1 F1800 X98.181 Y171.437 E122.6209
G0 F4500 X98.676 Y171.437
G1 F1800 X94.328 Y167.089 E123.20198
G0 F4500 X94.328 Y166.594
G1 F1800 X99.171 Y171.437 E123.84921
G0 F4500 X99.665 Y171.437
G1 F1800 X94.328 Y166.099 E124.56253
G0 F4500 X94.328 Y165.604
G1 F1800 X100.16 Y171.437 E125.342
G0 F4500 X100.655 Y171.437
G1 F1800 X94.328 Y165.109 E126.18763
G0 F4500 X94.328 Y164.614
G1 F1800 X101.15 Y171.437 E127.09941
G0 F4500 X101.645 Y171.437
G1 F1800 X94.328 Y164.119 E128.07735
G0 F4500 X94.328 Y163.624
G1 F1800 X102.14 Y171.437 E129.12143
G0 F4500 X102.635 Y171.437
G1 F1800 X94.328 Y163.129 E130.23167
G0 F4500 X94.328 Y162.634
G1 F1800 X103.13 Y171.437 E131.40807
G0 F4500 X103.625 Y171.437
G1 F1800 X94.328 Y162.139 E132.65062
G0 F4500 X94.328 Y161.644
G1 F1800 X104.12 Y171.437 E133.95932
G0 F4500 X104.615 Y171.437
G1 F1800 X94.328 Y161.149 E135.33417
G0 F4500 X94.328 Y160.654
G1 F1800 X105.11 Y171.437 E136.77518
G0 F4500 X105.605 Y171.437
G1 F1800 X94.328 Y160.159 E138.28234
G0 F4500 X94.328 Y159.664
G1 F1800 X106.1 Y171.437 E139.85565
G0 F4500 X106.595 Y171.437
G1 F1800 X94.328 Y159.169 E141.49512
G0 F4500 X94.328 Y158.674
G1 F1800 X107.09 Y171.437 E143.20074
G0 F4500 X107.585 Y171.437
G1 F1800 X94.328 Y158.179 E144.97252
G0 F4500 X94.328 Y157.684
G1 F1800 X108.08 Y171.437 E146.81045
G0 F4500 X108.575 Y171.437
G1 F1800 X94.328 Y157.189 E148.71453
G0 F4500 X94.328 Y156.694
G1 F1800 X109.07 Y171.437 E150.68476
G0 F4500 X109.565 Y171.437
G1 F1800 X94.328 Y156.199 E152.72115
G0 F4500 X94.328 Y155.704
G1 F1800 X110.06 Y171.437 E154.82369
G0 F4500 X110.555 Y171.437
G1 F1800 X94.328 Y155.209 E156.99239
G0 F4500 X94.328 Y154.714
G1 F1800 X111.05 Y171.437 E159.22723
G0 F4500 X111.545 Y171.437
G1 F1800 X94.328 Y154.219 E161.52824
G0 F4500 X94.328 Y153.725
G1 F1800 X112.04 Y171.437 E163.89532
G0 F4500 X112.535 Y171.437
G1 F1800 X94.328 Y153.23 E166.32856
G0 F4500 X94.328 Y152.735
G1 F1800 X113.03 Y171.437 E168.82796
G0 F4500 X113.525 Y171.437
G1 F1800 X94.328 Y152.24 E171.39351
G0 F4500 X94.328 Y151.745
G1 F1800 X114.02 Y171.437 E174.02521
G0 F4500 X114.515 Y171.437
G1 F1800 X94.328 Y151.25 E176.72306
G0 F4500 X94.328 Y150.755
G1 F1800 X115.01 Y171.437 E179.48707
G0 F4500 X115.505 Y171.437
G1 F1800 X94.328 Y150.26 E182.31723
G0 F4500 X94.328 Y149.765
G1 F1800 X116 Y171.437 E185.21355
G0 F4500 X116.495 Y171.437
G1 F1800 X94.328 Y149.27 E188.17602
G0 F4500 X94.328 Y148.775
G1 F1800 X116.99 Y171.437 E191.20464
G0 F4500 X117.485 Y171.437
G1 F1800 X94.328 Y148.28 E194.29941
G0 F4500 X94.328 Y147.785
G1 F1800 X117.98 Y171.437 E197.46034
G0 F4500 X118.475 Y171.437
G1 F1800 X94.328 Y147.29 E200.68742
G0 F4500 X94.328 Y146.795
G1 F1800 X118.97 Y171.437 E203.98066
G0 F4500 X119.464 Y171.437
G1 F1800 X94.328 Y146.3 E207.33998
G0 F4500 X94.328 Y145.805
G1 F1800 X119.959 Y171.437 E210.76546
G0 F4500 X120.454 Y171.437
G1 F1800 X94.328 Y145.31 E214.25709
G0 F4500 X94.328 Y144.815
G1 F1800 X120.949 Y171.437 E217.81487
G0 F4500 X121.444 Y171.437
G1 F1800 X94.328 Y144.32 E221.4388
G0 F4500 X94.328 Y143.825
G1 F1800 X121.939 Y171.437 E225.12889
G0 F4500 X122.434 Y171.437
G1 F1800 X94.328 Y143.33 E228.88513
G0 F4500 X94.328 Y142.835
G1 F1800 X122.929 Y171.437 E232.70753
G0 F4500 X123.424 Y171.437
G1 F1800 X94.328 Y142.34 E236.59608
G0 F4500 X94.328 Y141.845
G1 F1800 X123.919 Y171.437 E240.55078
G0 F4500 X124.414 Y171.437
G1 F1800 X94.328 Y141.35 E244.57164
G0 F4500 X94.328 Y140.855
G1 F1800 X124.909 Y171.437 E248.65864
G0 F4500 X125.404 Y171.437
G1 F1800 X94.328 Y140.36 E252.81181
G0 F4500 X94.328 Y139.865
G1 F1800 X125.899 Y171.437 E257.03112
G0 F4500 X126.394 Y171.437
G1 F1800 X94.328 Y139.37 E261.31659
G0 F4500 X94.328 Y138.875
G1 F1800 X126.889 Y171.437 E265.66821
G0 F4500 X127.384 Y171.437
G1 F1800 X94.328 Y138.38 E270.08599
G0 F4500 X94.328 Y137.885
G1 F1800 X127.879 Y171.437 E274.56992
G0 F4500 X128.374 Y171.437
G1 F1800 X94.328 Y137.39 E279.12
G0 F4500 X94.328 Y136.895
G1 F1800 X128.671 Y171.239 E283.70978
G0 F4500 X128.671 Y170.744
G1 F1800 X94.328 Y136.4 E288.29955
G0 F4500 X94.328 Y135.905
G1 F1800 X128.671 Y170.249 E292.88933
G0 F4500 X128.671 Y169.754
G1 F1800 X94.328 Y135.41 E297.4791
G0 F4500 X94.328 Y134.915
G1 F1800 X128.671 Y169.259 E302.06888
G0 F4500 X128.671 Y168.764
G1 F1800 X94.328 Y134.42 E306.65865
G0 F4500 X94.328 Y133.926
G1 F1800 X128.671 Y168.269 E311.24836
G0 F4500 X128.671 Y167.774
G1 F1800 X94.328 Y133.431 E315.83807
G0 F4500 X94.328 Y132.936
G1 F1800 X128.671 Y167.279 E320.42777
G0 F4500 X128.671 Y166.784
G1 F1800 X94.328 Y132.441 E325.01748
G0 F4500 X94.328 Y131.946
G1 F1800 X128.671 Y166.289 E329.60719
G0 F4500 X128.671 Y165.794
G1 F1800 X94.328 Y131.451 E334.1969
G0 F4500 X94.328 Y130.956
G1 F1800 X128.671 Y165.299 E338.7866
G0 F4500 X128.671 Y164.804
G1 F1800 X94.328 Y130.461 E343.37631
G0 F4500 X94.328 Y129.966
G1 F1800 X128.671 Y164.309 E347.96602
G0 F4500 X128.671 Y163.814
G1 F1800 X94.328 Y129.471 E352.55573
G0 F4500 X94.328 Y128.976
G1 F1800 X128.671 Y163.319 E357.14544
G0 F4500 X128.671 Y162.824
G1 F1800 X94.328 Y128.481 E361.73514
G0 F4500 X94.328 Y127.986
G1 F1800 X128.671 Y162.329 E366.32485
G0 F4500 X128.671 Y161.834
G1 F1800 X94.328 Y127.491 E370.91456
G0 F4500 X94.328 Y126.996
G1 F1800 X128.671 Y161.339 E375.50427
G0 F4500 X128.671 Y160.844
G1 F1800 X94.328 Y126.501 E380.09397
G0 F4500 X94.328 Y126.006
G1 F1800 X128.671 Y160.349 E384.68368
G0 F4500 X128.671 Y159.854
G1 F1800 X94.328 Y125.511 E389.27339
G0 F4500 X94.328 Y125.016
G1 F1800 X128.671 Y159.359 E393.8631
G0 F4500 X128.671 Y158.864
G1 F1800 X94.328 Y124.521 E398.45281
G0 F4500 X94.328 Y124.026
G1 F1800 X128.671 Y158.369 E403.04251
G0 F4500 X128.671 Y157.875
G1 F1800 X94.328 Y123.531 E407.63229
G0 F4500 X94.328 Y123.036
G1 F1800 X128.671 Y157.38 E412.22206
G0 F4500 X128.671 Y156.885
G1 F1800 X94.328 Y122.541 E416.81184
G0 F4500 X94.328 Y122.046
G1 F1800 X128.671 Y156.39 E421.40161
G0 F4500 X128.671 Y155.895
G1 F1800 X94.328 Y121.551 E425.99139
G0 F4500 X94.328 Y121.056
G1 F1800 X128.671 Y155.4 E430.58116
G0 F4500 X128.671 Y154.905
G1 F1800 X94.328 Y120.561 E435.17094
G0 F4500 X94.328 Y120.066
G1 F1800 X128.671 Y154.41 E439.76071
G0 F4500 X128.671 Y153.915
G1 F1800 X94.328 Y119.571 E444.35048
G0 F4500 X94.328 Y119.076
G1 F1800 X128.671 Y153.42 E448.94026
G0 F4500 X128.671 Y152.925
G1 F1800 X94.328 Y118.581 E453.53003
G0 F4500 X94.328 Y118.086
G1 F1800 X128.671 Y152.43 E458.11981
G0 F4500 X128.671 Y151.935
G1 F1800 X94.328 Y117.591 E462.70958
G0 F4500 X94.328 Y117.096
G1 F1800 X128.671 Y151.44 E467.29936
G0 F4500 X128.671 Y150.945
G1 F1800 X94.328 Y116.601 E471.88913
G0 F4500 X94.328 Y116.106
G1 F1800 X128.671 Y150.45 E476.47891
G0 F4500 X128.671 Y149.955
G1 F1800 X94.328 Y115.611 E481.06868
G0 F4500 X94.328 Y115.116
G1 F1800 X128.671 Y149.46 E485.65846
G0 F4500 X128.671 Y148.965
G1 F1800 X94.328 Y114.622 E490.24816
G0 F4500 X94.328 Y114.127
G1 F1800 X128.671 Y148.47 E494.83787
G0 F4500 X128.671 Y147.975
G1 F1800 X94.328 Y113.632 E499.42758
G0 F4500 X94.328 Y113.137
G1 F1800 X128.671 Y147.48 E504.01729
G0 F4500 X128.671 Y146.985
G1 F1800 X94.328 Y112.642 E508.607
G0 F4500 X94.328 Y112.147
G1 F1800 X128.671 Y146.49 E513.1967
G0 F4500 X128.671 Y145.995
G1 F1800 X94.328 Y111.652 E517.78641
G0 F4500 X94.328 Y111.157
G1 F1800 X128.671 Y145.5 E522.37612
G0 F4500 X128.671 Y145.005
G1 F1800 X94.328 Y110.662 E526.96583
G0 F4500 X94.328 Y110.167
G1 F1800 X128.671 Y144.51 E531.55553
G0 F4500 X128.671 Y144.015
G1 F1800 X94.328 Y109.672 E536.14524
G0 F4500 X94.328 Y109.177
G1 F1800 X128.671 Y143.52 E540.73495
G0 F4500 X128.671 Y143.025
G1 F1800 X94.328 Y108.682 E545.32466
G0 F4500 X94.328 Y108.187
G1 F1800 X128.671 Y142.53 E549.91437
G0 F4500 X128.671 Y142.035
G1 F1800 X94.328 Y107.692 E554.50407
G0 F4500 X94.328 Y107.197
G1 F1800 X128.671 Y141.54 E559.09378
G0 F4500 X128.671 Y141.045
G1 F1800 X94.328 Y106.702 E563.68349
G0 F4500 X94.328 Y106.207
G1 F1800 X128.671 Y140.55 E568.2732
G0 F4500 X128.671 Y140.055
G1 F1800 X94.328 Y105.712 E572.8629
G0 F4500 X94.328 Y105.217
G1 F1800 X128.671 Y139.56 E577.45261
G0 F4500 X128.671 Y139.065
G1 F1800 X94.328 Y104.722 E582.04232
G0 F4500 X94.328 Y104.227
G1 F1800 X128.671 Y138.571 E586.63209
G0 F4500 X128.671 Y138.076
G1 F1800 X94.328 Y103.732 E591.22187
G0 F4500 X94.328 Y103.237
G1 F1800 X128.671 Y137.581 E595.81164
G0 F4500 X128.671 Y137.086
G1 F1800 X94.328 Y102.742 E600.40142
G0 F4500 X94.328 Y102.247
G1 F1800 X128.671 Y136.591 E604.99119
G0 F4500 X128.671 Y136.096
G1 F1800 X94.328 Y101.752 E609.58097
G0 F4500 X94.328 Y101.257
G1 F1800 X128.671 Y135.601 E614.17074
G0 F4500 X128.671 Y135.106
G1 F1800 X94.328 Y100.762 E618.76052
G0 F4500 X94.328 Y100.267
G1 F1800 X128.671 Y134.611 E623.35029
G0 F4500 X128.671 Y134.116
G1 F1800 X94.328 Y99.772 E627.94007
G0 F4500 X94.328 Y99.277
G1 F1800 X128.671 Y133.621 E632.52984
G0 F4500 X128.671 Y133.126
G1 F1800 X94.328 Y98.782 E637.11961
G0 F4500 X94.328 Y98.287
G1 F1800 X128.671 Y132.631 E641.70939
G0 F4500 X128.671 Y132.136
G1 F1800 X94.328 Y97.792 E646.29916
G0 F4500 X94.328 Y97.297
G1 F1800 X128.671 Y131.641 E650.88894
G0 F4500 X128.671 Y131.146
G1 F1800 X94.328 Y96.802 E655.47871
G0 F4500 X94.328 Y96.307
G1 F1800 X128.671 Y130.651 E660.06849
G0 F4500 X128.671 Y130.156
G1 F1800 X94.328 Y95.812 E664.65826
G0 F4500 X94.328 Y95.317
G1 F1800 X128.671 Y129.661 E669.24804
G0 F4500 X128.671 Y129.166
G1 F1800 X94.328 Y94.823 E673.83775
G0 F4500 X94.328 Y94.328
G1 F1800 X128.671 Y128.671 E678.42745
G0 F4500 X128.671 Y128.176
G1 F1800 X94.328 Y93.833 E683.01716
G0 F4500 X94.328 Y93.338
G1 F1800 X128.671 Y127.681 E687.60687
G0 F4500 X128.671 Y127.186
G1 F1800 X94.328 Y92.843 E692.19658
G0 F4500 X94.328 Y92.348
G1 F1800 X128.671 Y126.691 E696.78628
G0 F4500 X128.671 Y126.196
G1 F1800 X94.328 Y91.853 E701.37599
G0 F4500 X94.328 Y91.358
G1 F1800 X128.671 Y125.701 E705.9657
G0 F4500 X128.671 Y125.206
G1 F1800 X94.328 Y90.863 E710.55541
G0 F4500 X94.328 Y90.368
G1 F1800 X128.671 Y124.711 E715.14512
G0 F4500 X128.671 Y124.216
G1 F1800 X94.328 Y89.873 E719.73482
G0 F4500 X94.328 Y89.378
G1 F1800 X128.671 Y123.721 E724.32453
G0 F4500 X128.671 Y123.226
G1 F1800 X94.328 Y88.883 E728.91424
G0 F4500 X94.328 Y88.388
G1 F1800 X128.671 Y122.731 E733.50395
G0 F4500 X128.671 Y122.236
G1 F1800 X94.328 Y87.893 E738.09365
G0 F4500 X94.328 Y87.398
G1 F1800 X128.671 Y121.741 E742.68336
G0 F4500 X128.671 Y121.246
G1 F1800 X94.328 Y86.903 E747.27307
G0 F4500 X94.328 Y86.408
G1 F1800 X128.671 Y120.751 E751.86278
G0 F4500 X128.671 Y120.256
G1 F1800 X94.328 Y85.913 E756.45249
G0 F4500 X94.328 Y85.418
G1 F1800 X128.671 Y119.761 E761.04219
G0 F4500 X128.671 Y119.266
G1 F1800 X94.328 Y84.923 E765.6319
G0 F4500 X94.328 Y84.428
G1 F1800 X128.671 Y118.772 E770.22168
G0 F4500 X128.671 Y118.277
G1 F1800 X94.328 Y83.933 E774.81145
G0 F4500 X94.328 Y83.438
G1 F1800 X128.671 Y117.782 E779.40122
G0 F4500 X128.671 Y117.287
G1 F1800 X94.328 Y82.943 E783.991
G0 F4500 X94.328 Y82.448
G1 F1800 X128.671 Y116.792 E788.58077
G0 F4500 X128.671 Y116.297
G1 F1800 X94.328 Y81.953 E793.17055
G0 F4500 X94.328 Y81.458
G1 F1800 X128.671 Y115.802 E797.76032
G0 F4500 X128.671 Y115.307
G1 F1800 X94.328 Y80.963 E802.3501
G0 F4500 X94.328 Y80.468
G1 F1800 X128.671 Y114.812 E806.93987
G0 F4500 X128.671 Y114.317
G1 F1800 X94.328 Y79.973 E811.52965
G0 F4500 X94.328 Y79.478
G1 F1800 X128.671 Y113.822 E816.11942
G0 F4500 X128.671 Y113.327
G1 F1800 X94.328 Y78.983 E820.7092
G0 F4500 X94.328 Y78.488
G1 F1800 X128.671 Y112.832 E825.29897
G0 F4500 X128.671 Y112.337
G1 F1800 X94.328 Y77.993 E829.88875
G0 F4500 X94.328 Y77.498
G1 F1800 X128.671 Y111.842 E834.47852
G0 F4500 X128.67 Y111.346
G1 F1800 X94.328 Y77.003 E839.06816
G0 F4500 X94.328 Y76.508
G1 F1800 X128.67 Y110.851 E843.6578
G0 F4500 X128.67 Y110.356
G1 F1800 X94.328 Y76.013 E848.24744
G0 F4500 X94.328 Y75.519
G1 F1800 X128.67 Y109.861 E852.83702
G0 F4500 X128.67 Y109.366
G1 F1800 X94.328 Y75.024 E857.42659
G0 F4500 X94.328 Y74.529
G1 F1800 X128.67 Y108.871 E862.01617
G0 F4500 X128.67 Y108.376
G1 F1800 X94.328 Y74.034 E866.60574
G0 F4500 X94.328 Y73.539
G1 F1800 X128.67 Y107.881 E871.19531
G0 F4500 X128.67 Y107.386
G1 F1800 X94.328 Y73.044 E875.78489
G0 F4500 X94.328 Y72.549
G1 F1800 X128.67 Y106.891 E880.37446
G0 F4500 X128.67 Y106.396
G1 F1800 X94.328 Y72.054 E884.96404
G0 F4500 X94.328 Y71.559
G1 F1800 X128.67 Y105.901 E889.55361
G0 F4500 X128.67 Y105.406
G1 F1800 X94.328 Y71.064 E894.14318
G0 F4500 X94.328 Y70.569
G1 F1800 X128.67 Y104.912 E898.73283
G0 F4500 X128.67 Y104.417
G1 F1800 X94.328 Y70.074 E903.32247
G0 F4500 X94.328 Y69.579
G1 F1800 X128.67 Y103.922 E907.91211
G0 F4500 X128.67 Y103.427
G1 F1800 X94.328 Y69.084 E912.50175
G0 F4500 X94.328 Y68.589
G1 F1800 X128.67 Y102.932 E917.09139
G0 F4500 X128.67 Y102.437
G1 F1800 X94.328 Y68.094 E921.68103
G0 F4500 X94.328 Y67.599
G1 F1800 X128.67 Y101.942 E926.27067
G0 F4500 X128.67 Y101.447
G1 F1800 X94.328 Y67.104 E930.86031
G0 F4500 X94.328 Y66.609
G1 F1800 X128.67 Y100.952 E935.44995
G0 F4500 X128.67 Y100.457
G1 F1800 X94.328 Y66.114 E940.03959
G0 F4500 X94.328 Y65.619
G1 F1800 X128.67 Y99.962 E944.62923
G0 F4500 X128.67 Y99.467
G1 F1800 X94.328 Y65.124 E949.21888
G0 F4500 X94.328 Y64.629
G1 F1800 X128.67 Y98.972 E953.80852
