;FLAVOR:UltiGCode
;TIME:5241
;MATERIAL:9238
;MATERIAL2:0
;NOZZLE_DIAMETER:0.4
;MINX:90.162
;MINY:47.365
;MINZ:0.27
;MAXX:132.84
;MAXY:175.635
;MAXZ:5.37
;Generated with Cura_SteamEngine 4.8.0
M82 ;absolute extrusion mode
G0 F3000 Y50 ;avoid prime blob
G92 E0
G92 E0
G10
;LAYER_COUNT:35
;LAYER:0
M107
G0 F4500 X90.547 Y49.236 Z0.27
;TYPE:SKIRT
G11
G1 F1800 X90.819 Y48.812 E0.0476
G1 X91.154 Y48.436 E0.09519
G1 X91.545 Y48.118 E0.14282
G1 X91.981 Y47.866 E0.19041
G1 X92.447 Y47.68 E0.23782
G1 X92.823 Y47.556 E0.27524
G1 X93.512 Y47.417 E0.34166
G1 X94.047 Y47.377 E0.39236
G1 X94.812 Y47.365 E0.46466
G1 X128.225 Y47.365 E3.62219
G1 X128.837 Y47.374 E3.68003
G1 X129.601 Y47.441 E3.7525
G1 X130.096 Y47.532 E3.80007
G1 X130.72 Y47.743 E3.86231
G1 X131.18 Y47.949 E3.90994
G1 X131.601 Y48.225 E3.95752
G1 X131.973 Y48.565 E4.00514
G1 X132.287 Y48.958 E4.05268
G1 X132.535 Y49.397 E4.10033
G1 X132.71 Y49.869 E4.1479
G1 X132.827 Y50.605 E4.21832
G1 X132.84 Y51.217 E4.27617
G1 X132.83 Y90.745 E8.01156
G1 X132.84 Y171.565 E15.64905
G1 X132.83 Y172.31 E15.71946
G1 X132.783 Y172.811 E15.76702
G1 X132.658 Y173.299 E15.81462
G1 X132.457 Y173.761 E15.86223
G1 X132.185 Y174.185 E15.90984
G1 X131.85 Y174.561 E15.95743
G1 X131.46 Y174.879 E16.00498
G1 X131.024 Y175.132 E16.05262
G1 X130.47 Y175.346 E16.10874
G1 X130.154 Y175.449 E16.14015
G1 X129.54 Y175.58 E16.19948
G1 X128.915 Y175.626 E16.2587
G1 X128.314 Y175.635 E16.3155
G1 X94.775 Y175.635 E19.48493
G1 X94.078 Y175.625 E19.55081
G1 X93.503 Y175.576 E19.60534
G1 X93.238 Y175.536 E19.63067
G1 X92.635 Y175.384 E19.68943
G1 X92.269 Y175.252 E19.7262
G1 X91.81 Y175.044 E19.77382
G1 X91.39 Y174.766 E19.82142
G1 X91.019 Y174.425 E19.86904
G1 X90.707 Y174.03 E19.91661
G1 X90.461 Y173.591 E19.96416
G1 X90.288 Y173.118 E20.01176
G1 X90.191 Y172.624 E20.05933
G1 X90.162 Y172.016 E20.11685
G1 X90.162 Y157.499 E21.48871
G1 X90.169 Y125.6 E24.50316
G1 X90.164 Y104.554 E26.49201
G1 X90.162 Y51.378 E31.51714
G1 X90.172 Y50.686 E31.58254
G1 X90.22 Y50.185 E31.63011
G1 X90.345 Y49.697 E31.67771
G1 X90.547 Y49.236 E31.72527
G10
;MESH:V2paddleholder.stl
G0 F4500 X92.644 Y104.555
G0 X93.884 Y104.554
G0 X93.969 Y125.646
G0 X93.869 Y125.646
;TYPE:WALL-INNER
G11
G1 F1800 X93.864 Y104.554 E33.71847
G1 X93.862 Y51.136 E38.76647
G1 X93.862 Y51.1 E38.76987
G1 X94.138 Y51.065 E38.79616
G1 X94.174 Y51.065 E38.79956
G1 X128.822 Y51.065 E42.0738
G1 X128.852 Y51.065 E42.07663
G1 X129.14 Y51.1 E42.10405
G1 X129.14 Y51.13 E42.10689
G1 X129.13 Y90.707 E45.84691
G1 X129.14 Y171.86 E53.51587
G1 X129.14 Y171.897 E53.51937
G1 X128.866 Y171.935 E53.54551
G1 X128.829 Y171.935 E53.549
G1 X94.176 Y171.935 E56.82371
G1 X94.144 Y171.935 E56.82674
G1 X93.861 Y171.898 E56.85371
G1 X93.861 Y171.866 E56.85673
G1 X93.862 Y157.499 E58.21441
G1 X93.869 Y125.646 E61.22452
G0 F4500 X93.544 Y125.646
;TYPE:WALL-OUTER
G1 F1800 X93.539 Y104.554 E63.21772
G1 X93.537 Y50.867 E68.29114
G1 X93.836 Y50.765 E68.32099
G1 X94.121 Y50.74 E68.34803
G1 X128.876 Y50.74 E71.63238
G1 X129.266 Y50.788 E71.66951
G1 X129.465 Y50.863 E71.68961
G1 X129.455 Y90.707 E75.45486
G1 X129.465 Y172.131 E83.14943
G1 X129.145 Y172.238 E83.18132
G1 X128.881 Y172.26 E83.20635
G1 X94.125 Y172.26 E86.49079
G1 X93.713 Y172.206 E86.53006
G1 X93.536 Y172.137 E86.54801
G1 X93.537 Y157.499 E87.9313
G1 X93.544 Y125.646 E90.94141
G0 F4500 X93.544 Y125.446
G0 X94.209 Y125.646
;TYPE:SKIN
G1 F1800 X94.204 Y104.554 E92.93461
G1 X94.202 Y51.405 E97.95719
G1 X128.8 Y51.405 E101.2267
G1 X128.79 Y90.707 E104.94074
G1 X128.8 Y171.595 E112.58465
G1 X94.201 Y171.595 E115.85426
G1 X94.202 Y157.499 E117.18633
G1 X94.209 Y125.646 E120.19644
G0 F4500 X94.716 Y171.437
G1 F1800 X94.358 Y171.079 E120.24428
G0 F4500 X94.358 Y170.584
G1 F1800 X95.211 Y171.437 E120.35828
G0 F4500 X95.706 Y171.437
G1 F1800 X94.358 Y170.089 E120.53843
G0 F4500 X94.358 Y169.594
G1 F1800 X96.201 Y171.437 E120.78474
G0 F4500 X96.696 Y171.437
G1 F1800 X94.358 Y169.099 E121.0972
G0 F4500 X94.358 Y168.604
G1 F1800 X97.191 Y171.437 E121.47581
G0 F4500 X97.686 Y171.437
G1 F1800 X94.358 Y168.109 E121.92057
G0 F4500 X94.358 Y167.614
G1 F1800 X98.181 Y171.437 E122.43149
G0 F4500 X98.676 Y171.437
G1 F1800 X94.358 Y167.119 E123.00856
G0 F4500 X94.358 Y166.624
G1 F1800 X99.171 Y171.437 E123.65178
G0 F4500 X99.665 Y171.437
G1 F1800 X94.358 Y166.129 E124.3611
G0 F4500 X94.358 Y165.634
G1 F1800 X100.16 Y171.437 E125.13656
G0 F4500 X100.655 Y171.437
G1 F1800 X94.358 Y165.139 E125.97818
G0 F4500 X94.358 Y164.644
G1 F1800 X101.15 Y171.437 E126.88595
G0 F4500 X101.645 Y171.437
G1 F1800 X94.358 Y164.149 E127.85987
G0 F4500 X94.358 Y163.654
G1 F1800 X102.14 Y171.437 E128.89995
G0 F4500 X102.635 Y171.437
G1 F1800 X94.358 Y163.159 E130.00618
G0 F4500 X94.358 Y162.664
G1 F1800 X103.13 Y171.437 E131.17857
G0 F4500 X103.625 Y171.437
G1 F1800 X94.358 Y162.169 E132.41711
G0 F4500 X94.358 Y161.675
G1 F1800 X104.12 Y171.437 E133.72173
G0 F4500 X104.615 Y171.437
G1 F1800 X94.358 Y161.18 E135.09251
G0 F4500 X94.358 Y160.685
G1 F1800 X105.11 Y171.437 E136.52944
G0 F4500 X105.605 Y171.437
G1 F1800 X94.358 Y160.19 E138.03253
G0 F4500 X94.358 Y159.695
G1 F1800 X106.1 Y171.437 E139.60176
G0 F4500 X106.595 Y171.437
G1 F1800 X94.358 Y159.2 E141.23716
G0 F4500 X94.358 Y158.705
G1 F1800 X107.09 Y171.437 E142.9387
G0 F4500 X107.585 Y171.437
G1 F1800 X94.358 Y158.21 E144.7064
G0 F4500 X94.358 Y157.715
G1 F1800 X108.08 Y171.437 E146.54025
G0 F4500 X108.575 Y171.437
G1 F1800 X94.359 Y157.22 E148.44019
G0 F4500 X94.359 Y156.725
G1 F1800 X109.07 Y171.437 E150.40628
G0 F4500 X109.565 Y171.437
G1 F1800 X94.359 Y156.231 E152.43846
G0 F4500 X94.359 Y155.736
G1 F1800 X110.06 Y171.437 E154.53679
G0 F4500 X110.555 Y171.437
G1 F1800 X94.359 Y155.241 E156.70128
G0 F4500 X94.359 Y154.746
G1 F1800 X111.05 Y171.437 E158.93191
G0 F4500 X111.545 Y171.437
G1 F1800 X94.359 Y154.251 E161.22871
G0 F4500 X94.359 Y153.756
G1 F1800 X112.04 Y171.437 E163.59165
G0 F4500 X112.535 Y171.437
G1 F1800 X94.359 Y153.261 E166.02075
G0 F4500 X94.359 Y152.766
G1 F1800 X113.03 Y171.437 E168.516
G0 F4500 X113.525 Y171.437
G1 F1800 X94.359 Y152.271 E171.07741
G0 F4500 X94.359 Y151.776
G1 F1800 X114.02 Y171.437 E173.70496
G0 F4500 X114.515 Y171.437
G1 F1800 X94.359 Y151.281 E176.39868
G0 F4500 X94.359 Y150.786
G1 F1800 X115.01 Y171.437 E179.15854
G0 F4500 X115.505 Y171.437
G1 F1800 X94.36 Y150.292 E181.98443
G0 F4500 X94.36 Y149.797
G1 F1800 X116 Y171.437 E184.87647
G0 F4500 X116.495 Y171.437
G1 F1800 X94.36 Y149.302 E187.83466
G0 F4500 X94.36 Y148.807
G1 F1800 X116.99 Y171.437 E190.859
G0 F4500 X117.485 Y171.437
G1 F1800 X94.36 Y148.312 E193.9495
G0 F4500 X94.36 Y147.817
G1 F1800 X117.98 Y171.437 E197.10615
G0 F4500 X118.475 Y171.437
G1 F1800 X94.36 Y147.322 E200.32896
G0 F4500 X94.361 Y146.828
G1 F1800 X118.97 Y171.437 E203.61778
G0 F4500 X119.464 Y171.437
G1 F1800 X94.361 Y146.333 E206.9727
G0 F4500 X94.361 Y145.838
G1 F1800 X119.959 Y171.437 E210.39376
G0 F4500 X120.454 Y171.437
G1 F1800 X94.361 Y145.343 E213.88098
G0 F4500 X94.361 Y144.848
G1 F1800 X120.949 Y171.437 E217.43435
G0 F4500 X121.444 Y171.437
G1 F1800 X94.361 Y144.353 E221.05388
G0 F4500 X94.361 Y143.858
G1 F1800 X121.939 Y171.437 E224.73955
G0 F4500 X122.434 Y171.437
G1 F1800 X94.361 Y143.363 E228.49139
G0 F4500 X94.361 Y142.869
G1 F1800 X122.929 Y171.437 E232.3093
G0 F4500 X123.424 Y171.437
G1 F1800 X94.361 Y142.374 E236.19338
G0 F4500 X94.361 Y141.879
G1 F1800 X123.919 Y171.437 E240.1436
G0 F4500 X124.414 Y171.437
G1 F1800 X94.361 Y141.384 E244.15998
G0 F4500 X94.361 Y140.889
G1 F1800 X124.909 Y171.437 E248.24251
G0 F4500 X125.404 Y171.437
G1 F1800 X94.361 Y140.394 E252.3912
G0 F4500 X94.361 Y139.899
G1 F1800 X125.899 Y171.437 E256.60604
G0 F4500 X126.394 Y171.437
G1 F1800 X94.362 Y139.405 E260.88689
G0 F4500 X94.362 Y138.91
G1 F1800 X126.889 Y171.437 E265.23391
G0 F4500 X127.384 Y171.437
G1 F1800 X94.362 Y138.415 E269.64707
G0 F4500 X94.362 Y137.92
G1 F1800 X127.879 Y171.437 E274.12639
G0 F4500 X128.374 Y171.437
G1 F1800 X94.362 Y137.425 E278.67186
G0 F4500 X94.362 Y136.93
G1 F1800 X128.643 Y171.211 E283.25328
G0 F4500 X128.643 Y170.716
G1 F1800 X94.362 Y136.435 E287.83471
G0 F4500 X94.363 Y135.941
G1 F1800 X128.643 Y170.221 E292.41599
G0 F4500 X128.643 Y169.726
G1 F1800 X94.363 Y135.446 E296.99728
G0 F4500 X94.363 Y134.951
G1 F1800 X128.643 Y169.231 E301.57857
G0 F4500 X128.643 Y168.736
G1 F1800 X94.363 Y134.456 E306.15986
G0 F4500 X94.363 Y133.961
G1 F1800 X128.643 Y168.241 E310.74115
G0 F4500 X128.643 Y167.746
G1 F1800 X94.363 Y133.466 E315.32243
G0 F4500 X94.363 Y132.971
G1 F1800 X128.643 Y167.251 E319.90372
G0 F4500 X128.643 Y166.756
G1 F1800 X94.364 Y132.477 E324.48488
G0 F4500 X94.364 Y131.982
G1 F1800 X128.642 Y166.26 E329.0659
G0 F4500 X128.642 Y165.765
G1 F1800 X94.364 Y131.487 E333.64692
G0 F4500 X94.364 Y130.992
G1 F1800 X128.642 Y165.27 E338.22794
G0 F4500 X128.642 Y164.775
G1 F1800 X94.364 Y130.497 E342.80896
G0 F4500 X94.364 Y130.002
G1 F1800 X128.642 Y164.28 E347.38998
G0 F4500 X128.642 Y163.785
G1 F1800 X94.364 Y129.507 E351.971
G0 F4500 X94.364 Y129.013
G1 F1800 X128.642 Y163.29 E356.55196
G0 F4500 X128.642 Y162.795
G1 F1800 X94.364 Y128.518 E361.13291
G0 F4500 X94.364 Y128.023
G1 F1800 X128.642 Y162.3 E365.71387
G0 F4500 X128.642 Y161.805
G1 F1800 X94.364 Y127.528 E370.29482
G0 F4500 X94.364 Y127.033
G1 F1800 X128.641 Y161.31 E374.87571
G0 F4500 X128.641 Y160.815
G1 F1800 X94.364 Y126.538 E379.45659
G0 F4500 X94.364 Y126.043
G1 F1800 X128.641 Y160.32 E384.03748
G0 F4500 X128.641 Y159.825
G1 F1800 X94.364 Y125.548 E388.61837
G0 F4500 X94.364 Y125.053
G1 F1800 X128.641 Y159.33 E393.19926
G0 F4500 X128.641 Y158.835
G1 F1800 X94.364 Y124.558 E397.78014
G0 F4500 X94.364 Y124.063
G1 F1800 X128.641 Y158.34 E402.36103
G0 F4500 X128.641 Y157.845
G1 F1800 X94.364 Y123.568 E406.94192
G0 F4500 X94.364 Y123.073
G1 F1800 X128.641 Y157.35 E411.52281
G0 F4500 X128.641 Y156.855
G1 F1800 X94.364 Y122.578 E416.10369
G0 F4500 X94.364 Y122.082
G1 F1800 X128.641 Y156.36 E420.68465
G0 F4500 X128.641 Y155.864
G1 F1800 X94.364 Y121.587 E425.26553
G0 F4500 X94.364 Y121.092
G1 F1800 X128.641 Y155.369 E429.84642
G0 F4500 X128.641 Y154.874
G1 F1800 X94.364 Y120.597 E434.42731
G0 F4500 X94.364 Y120.102
G1 F1800 X128.641 Y154.379 E439.0082
G0 F4500 X128.641 Y153.884
G1 F1800 X94.364 Y119.607 E443.58908
G0 F4500 X94.364 Y119.112
G1 F1800 X128.641 Y153.389 E448.16997
G0 F4500 X128.641 Y152.894
G1 F1800 X94.364 Y118.617 E452.75086
G0 F4500 X94.363 Y118.122
G1 F1800 X128.641 Y152.399 E457.33181
G0 F4500 X128.641 Y151.904
G1 F1800 X94.363 Y117.627 E461.91277
G0 F4500 X94.363 Y117.132
G1 F1800 X128.641 Y151.409 E466.49372
G0 F4500 X128.64 Y150.914
G1 F1800 X94.363 Y116.637 E471.07461
G0 F4500 X94.363 Y116.142
G1 F1800 X128.64 Y150.419 E475.6555
G0 F4500 X128.64 Y149.924
G1 F1800 X94.363 Y115.647 E480.23638
G0 F4500 X94.363 Y115.152
G1 F1800 X128.64 Y149.429 E484.81727
G0 F4500 X128.64 Y148.934
G1 F1800 X94.362 Y114.656 E489.39829
G0 F4500 X94.362 Y114.161
G1 F1800 X128.64 Y148.439 E493.97931
G0 F4500 X128.64 Y147.944
G1 F1800 X94.362 Y113.666 E498.56033
G0 F4500 X94.362 Y113.171
G1 F1800 X128.64 Y147.449 E503.14135
G0 F4500 X128.64 Y146.954
G1 F1800 X94.362 Y112.676 E507.72238
G0 F4500 X94.362 Y112.181
G1 F1800 X128.64 Y146.459 E512.3034
G0 F4500 X128.639 Y145.963
G1 F1800 X94.362 Y111.686 E516.88428
G0 F4500 X94.361 Y111.191
G1 F1800 X128.639 Y145.468 E521.46524
G0 F4500 X128.639 Y144.973
G1 F1800 X94.361 Y110.696 E526.04619
G0 F4500 X94.361 Y110.201
G1 F1800 X128.639 Y144.478 E530.62715
G0 F4500 X128.639 Y143.983
G1 F1800 X94.361 Y109.706 E535.2081
G0 F4500 X94.361 Y109.211
G1 F1800 X128.639 Y143.488 E539.78905
G0 F4500 X128.639 Y142.993
G1 F1800 X94.361 Y108.716 E544.37001
G0 F4500 X94.361 Y108.221
G1 F1800 X128.639 Y142.498 E548.95096
G0 F4500 X128.639 Y142.004
G1 F1800 X94.361 Y107.725 E553.53205
G0 F4500 X94.361 Y107.23
G1 F1800 X128.639 Y141.509 E558.11314
G0 F4500 X128.638 Y141.013
G1 F1800 X94.361 Y106.735 E562.69409
G0 F4500 X94.361 Y106.24
G1 F1800 X128.638 Y140.518 E567.27505
G0 F4500 X128.638 Y140.023
G1 F1800 X94.361 Y105.745 E571.856
G0 F4500 X94.361 Y105.25
G1 F1800 X128.638 Y139.528 E576.43696
G0 F4500 X128.638 Y139.033
G1 F1800 X94.361 Y104.755 E581.01791
G0 F4500 X94.36 Y104.26
G1 F1800 X128.638 Y138.538 E585.59893
G0 F4500 X128.638 Y138.043
G1 F1800 X94.36 Y103.765 E590.17995
G0 F4500 X94.36 Y103.27
G1 F1800 X128.638 Y137.548 E594.76097
G0 F4500 X128.638 Y137.053
G1 F1800 X94.36 Y102.775 E599.34199
G0 F4500 X94.36 Y102.28
G1 F1800 X128.638 Y136.558 E603.92301
G0 F4500 X128.638 Y136.062
G1 F1800 X94.36 Y101.785 E608.50397
G0 F4500 X94.36 Y101.29
G1 F1800 X128.638 Y135.567 E613.08492
G0 F4500 X128.638 Y135.072
G1 F1800 X94.36 Y100.795 E617.66588
G0 F4500 X94.36 Y100.3
G1 F1800 X128.638 Y134.577 E622.24683
G0 F4500 X128.638 Y134.083
G1 F1800 X94.36 Y99.805 E626.82785
G0 F4500 X94.36 Y99.31
G1 F1800 X128.638 Y133.588 E631.40887
G0 F4500 X128.638 Y133.093
G1 F1800 X94.36 Y98.815 E635.98989
G0 F4500 X94.36 Y98.32
G1 F1800 X128.638 Y132.598 E640.57091
G0 F4500 X128.638 Y132.103
G1 F1800 X94.36 Y97.825 E645.15194
G0 F4500 X94.36 Y97.33
G1 F1800 X128.638 Y131.608 E649.73296
G0 F4500 X128.638 Y131.113
G1 F1800 X94.36 Y96.835 E654.31398
G0 F4500 X94.36 Y96.34
G1 F1800 X128.637 Y130.617 E658.89487
G0 F4500 X128.637 Y130.122
G1 F1800 X94.36 Y95.845 E663.47575
G0 F4500 X94.36 Y95.35
G1 F1800 X128.637 Y129.627 E668.05664
G0 F4500 X128.637 Y129.132
G1 F1800 X94.36 Y94.855 E672.63753
G0 F4500 X94.36 Y94.36
G1 F1800 X128.637 Y128.637 E677.21841
G0 F4500 X128.637 Y128.142
G1 F1800 X94.36 Y93.865 E681.7993
G0 F4500 X94.36 Y93.37
G1 F1800 X128.637 Y127.647 E686.38019
G0 F4500 X128.637 Y127.152
G1 F1800 X94.36 Y92.875 E690.96108
G0 F4500 X94.36 Y92.38
G1 F1800 X128.637 Y126.657 E695.54196
G0 F4500 X128.637 Y126.162
G1 F1800 X94.36 Y91.885 E700.12285
G0 F4500 X94.36 Y91.39
G1 F1800 X128.636 Y125.667 E704.70367
G0 F4500 X128.636 Y125.172
G1 F1800 X94.359 Y90.895 E709.28456
G0 F4500 X94.359 Y90.4
G1 F1800 X128.636 Y124.677 E713.86545
G0 F4500 X128.636 Y124.182
G1 F1800 X94.359 Y89.905 E718.44633
G0 F4500 X94.359 Y89.41
G1 F1800 X128.636 Y123.687 E723.02722
G0 F4500 X128.636 Y123.192
G1 F1800 X94.359 Y88.915 E727.60811
G0 F4500 X94.359 Y88.42
G1 F1800 X128.636 Y122.697 E732.189
G0 F4500 X128.636 Y122.202
G1 F1800 X94.359 Y87.925 E736.76988
G0 F4500 X94.359 Y87.43
G1 F1800 X128.636 Y121.707 E741.35077
G0 F4500 X128.636 Y121.212
G1 F1800 X94.359 Y86.935 E745.93166
G0 F4500 X94.359 Y86.44
G1 F1800 X128.636 Y120.716 E750.51248
G0 F4500 X128.636 Y120.221
G1 F1800 X94.359 Y85.945 E755.0933
G0 F4500 X94.359 Y85.45
G1 F1800 X128.636 Y119.726 E759.67412
G0 F4500 X128.636 Y119.231
G1 F1800 X94.359 Y84.955 E764.25494
G0 F4500 X94.359 Y84.46
G1 F1800 X128.636 Y118.736 E768.83576
G0 F4500 X128.636 Y118.241
G1 F1800 X94.359 Y83.965 E773.41658
G0 F4500 X94.359 Y83.47
G1 F1800 X128.636 Y117.746 E777.9974
G0 F4500 X128.636 Y117.251
G1 F1800 X94.359 Y82.975 E782.57822
G0 F4500 X94.359 Y82.48
G1 F1800 X128.636 Y116.756 E787.15904
G0 F4500 X128.636 Y116.261
G1 F1800 X94.359 Y81.985 E791.73986
G0 F4500 X94.359 Y81.49
G1 F1800 X128.635 Y115.766 E796.32062
G0 F4500 X128.635 Y115.271
G1 F1800 X94.359 Y80.995 E800.90137
G0 F4500 X94.359 Y80.5
G1 F1800 X128.635 Y114.776 E805.48212
G0 F4500 X128.635 Y114.281
G1 F1800 X94.359 Y80.005 E810.06288
G0 F4500 X94.359 Y79.51
G1 F1800 X128.635 Y113.786 E814.64363
G0 F4500 X128.635 Y113.291
G1 F1800 X94.359 Y79.015 E819.22439
G0 F4500 X94.359 Y78.52
G1 F1800 X128.635 Y112.796 E823.80514
G0 F4500 X128.635 Y112.301
G1 F1800 X94.359 Y78.024 E828.38596
G0 F4500 X94.359 Y77.53
G1 F1800 X128.635 Y111.806 E832.96671
G0 F4500 X128.635 Y111.311
G1 F1800 X94.359 Y77.035 E837.54747
G0 F4500 X94.359 Y76.54
G1 F1800 X128.634 Y110.815 E842.12809
G0 F4500 X128.634 Y110.32
G1 F1800 X94.359 Y76.045 E846.70871
G0 F4500 X94.359 Y75.55
G1 F1800 X128.634 Y109.825 E851.28933
G0 F4500 X128.634 Y109.33
G1 F1800 X94.359 Y75.055 E855.86995
G0 F4500 X94.359 Y74.56
G1 F1800 X128.634 Y108.835 E860.45057
G0 F4500 X128.634 Y108.34
